svg/fluentui-system-icons/ic_fluent_music_note_off_2_16_filled.svg

<svg width="16" height="16" viewBox="0 0 16 16" fill="none" xmlns="http://www.w3.org/2000/svg">
<path d="M12.5531 13.2602L14.1464 14.8536C14.3417 15.0488 14.6583 15.0488 14.8536 14.8536C15.0488 14.6583 15.0488 14.3417 14.8536 14.1464L1.85355 1.14645C1.65829 0.951184 1.34171 0.951184 1.14645 1.14645C0.951184 1.34171 0.951184 1.65829 1.14645 1.85355L5 5.70711V11.2675C4.70583 11.0974 4.36429 11 4 11C2.89543 11 2 11.8954 2 13C2 14.1045 2.89543 15 4 15C5.10457 15 6 14.1045 6 13V7.35237L6.47545 7.18256L9.73978 10.4469C9.28841 10.8136 9 11.3731 9 12C9 13.1045 9.89543 14 11 14C11.6269 14 12.1864 13.7116 12.5531 13.2602ZM12 5.20951V9.87866L13 10.8787V1.92568C13 1.37245 12.4519 0.986213 11.9309 1.17228L5.5666 3.44526L8.55957 6.43823L12 5.20951Z" fill="#212121"/>
</svg>

<svg xmlns="http://www.w3.org/2000/svg" width="16" height="16"><path d="m12.553 13.26 1.593 1.594a.5.5 0 0 0 .708-.708l-13-13a.5.5 0 1 0-.708.708L5 5.707v5.56A2 2 0 1 0 6 13V7.353l.475-.17 3.265 3.265a2 2 0 1 0 2.813 2.813ZM12 5.21v4.669l1 1V1.926a.8.8 0 0 0-1.07-.754L5.568 3.445 8.56 6.438 12 5.21Z"/></svg>
